assets/img/p1.svg

<svg width="22" height="24" viewBox="0 0 22 24" fill="none" xmlns="http://www.w3.org/2000/svg">
<path d="M13.9993 12H7.99927V20.5H13.9993V12Z" fill="#EAC3A2"/>
<path fill-rule="evenodd" clip-rule="evenodd" d="M16.4993 6V10C16.4993 13.0325 14.0318 15.5 10.9993 15.5C7.96677 15.5 5.49927 13.0325 5.49927 10V6H16.4993Z" fill="#F1D9C5"/>
<path fill-rule="evenodd" clip-rule="evenodd" d="M5.49927 5.99953C5.49927 4.34298 6.76691 2.54735 8.32626 1.99044L12.0291 0.667993C12.2888 0.575257 12.5988 0.699157 12.7212 0.943942L13.4993 2.50008C15.1561 2.50008 16.4993 3.84659 16.4993 5.50008V8.50008C16.4993 7.11937 15.38 6.00008 13.9993 6.00008H7.99927C6.61856 6.00008 5.49927 7.11937 5.49927 8.50008V5.99953Z" fill="#C6A279"/>
<path fill-rule="evenodd" clip-rule="evenodd" d="M22 22.0046C22 21.1736 21.3855 20.2312 20.6248 19.8983L14 17L10.9992 20L8.009 17L1.3768 19.8983C0.616413 20.2306 0 21.1748 0 22.0046V23.4985C0 23.7755 0.224908 24 0.500836 24H21.4992C21.7758 24 22 23.7811 22 23.4985V22.0046Z" fill="#444444"/>
</svg>

<svg xmlns="http://www.w3.org/2000/svg" width="22" height="24" fill="none" xmlns:v="https://vecta.io/nano"><path d="M13.999 12h-6v8.5h6V12z" fill="#eac3a2"/><g fill-rule="evenodd"><path d="M16.499 6v4a5.51 5.51 0 0 1-5.5 5.5 5.51 5.51 0 0 1-5.5-5.5V6h11z" fill="#f1d9c5"/><path d="M5.499 6c0-1.657 1.268-3.452 2.827-4.009L12.029.668c.26-.093.57.031.692.276l.778 1.556c1.657 0 3 1.347 3 3v3a2.5 2.5 0 0 0-2.5-2.5h-6a2.5 2.5 0 0 0-2.5 2.5V6z" fill="#c6a279"/><path d="M22 22.005c0-.831-.614-1.773-1.375-2.106L14 17l-3.001 3-2.99-3-6.632 2.898C.616 20.231 0 21.175 0 22.005v1.494A.5.5 0 0 0 .501 24h20.998c.277 0 .501-.219.501-.502v-1.494z" fill="#444"/></g></svg>
